assetsMobile/image/graduationCap.svg

<?xml version="1.0" encoding="UTF-8"?>
<svg xmlns="http://www.w3.org/2000/svg" xmlns:xlink="http://www.w3.org/1999/xlink" width="67px" height="61px" viewBox="0 0 67 61" version="1.1">
<g id="surface1">
<path style=" stroke:none;fill-rule:nonzero;fill:rgb(98.039216%,97.254902%,96.862745%);fill-opacity:1;" d="M 65.699219 16.300781 C 66.5 16 67 15.199219 67 14.300781 C 67 13.398438 66.5 12.601562 65.699219 12.300781 L 34.199219 0.101562 C 33.800781 -0.101562 33.300781 -0.101562 32.898438 0.101562 L 1.300781 12.300781 C 0.5 12.601562 0 13.398438 0 14.300781 C 0 15.199219 0.5 16 1.300781 16.300781 L 13.800781 21.101562 L 13.800781 35.101562 C 13.800781 37.398438 16 39.398438 20.398438 40.898438 C 24.199219 42.199219 28.898438 43 33.601562 43 C 38.300781 43 43 42.300781 46.800781 40.898438 C 51.101562 39.398438 53.398438 37.398438 53.398438 35.101562 L 53.398438 21.101562 L 58.601562 19.101562 L 58.601562 38.5 C 56.300781 39.398438 54.699219 41.800781 54.699219 44.601562 C 54.699219 47.398438 56.300781 49.800781 58.601562 50.699219 L 58.601562 58.898438 C 58.601562 60.101562 59.5 61 60.601562 61 C 61.699219 61 62.601562 60 62.601562 58.898438 L 62.601562 50.699219 C 64.898438 49.800781 66.5 47.398438 66.5 44.601562 C 66.5 41.800781 64.898438 39.398438 62.601562 38.5 L 62.601562 17.601562 Z M 60.300781 46.699219 C 59.199219 46.699219 58.300781 45.699219 58.300781 44.5 C 58.300781 43.300781 59.199219 42.300781 60.300781 42.300781 C 61.398438 42.300781 62.300781 43.300781 62.300781 44.5 C 62.300781 45.800781 61.398438 46.699219 60.300781 46.699219 Z M 33.5 4.398438 L 59.199219 14.300781 L 33.5 24.300781 L 7.800781 14.300781 Z M 49.300781 34.800781 C 48.898438 35.199219 47.601562 36.199219 44.5 37.101562 C 41.300781 38.101562 37.300781 38.699219 33.5 38.699219 C 29.699219 38.699219 25.699219 38.101562 22.5 37.101562 C 19.5 36.199219 18.101562 35.199219 17.699219 34.800781 L 17.699219 22.699219 L 32.800781 28.601562 C 33 28.699219 33.199219 28.699219 33.5 28.699219 C 33.800781 28.699219 33.898438 28.699219 34.199219 28.601562 L 49.300781 22.699219 Z M 49.300781 34.800781 "/>
</g>
</svg>

<?xml version="1.0" encoding="utf-8"?>
<!-- Generator: Adobe Illustrator 24.0.2, SVG Export Plug-In . SVG Version: 6.00 Build 0)  -->
<svg version="1.1" id="Capa_1" xmlns="http://www.w3.org/2000/svg" xmlns:xlink="http://www.w3.org/1999/xlink" x="0px" y="0px"
	 viewBox="0 0 67 61" style="enable-background:new 0 0 67 61;" xml:space="preserve">
<style type="text/css">
	.st0{fill:#FAF8F7;}
</style>
<path class="st0" d="M65.7,16.3c0.8-0.3,1.3-1.1,1.3-2c0-0.9-0.5-1.7-1.3-2L34.2,0.1c-0.4-0.2-0.9-0.2-1.3,0L1.3,12.3
	c-0.8,0.3-1.3,1.1-1.3,2s0.5,1.7,1.3,2l12.5,4.8v14c0,2.3,2.2,4.3,6.6,5.8c3.8,1.3,8.5,2.1,13.2,2.1s9.4-0.7,13.2-2.1
	c4.3-1.5,6.6-3.5,6.6-5.8v-14l5.2-2v19.4c-2.3,0.9-3.9,3.3-3.9,6.1c0,2.8,1.6,5.2,3.9,6.1v8.2c0,1.2,0.9,2.1,2,2.1c1.1,0,2-1,2-2.1
	v-8.2c2.3-0.9,3.9-3.3,3.9-6.1c0-2.8-1.6-5.2-3.9-6.1V17.6L65.7,16.3z M60.3,46.7c-1.1,0-2-1-2-2.2c0-1.2,0.9-2.2,2-2.2s2,1,2,2.2
	C62.3,45.8,61.4,46.7,60.3,46.7z M33.5,4.4l25.7,9.9l-25.7,10l-25.7-10L33.5,4.4z M49.3,34.8c-0.4,0.4-1.7,1.4-4.8,2.3
	c-3.2,1-7.2,1.6-11,1.6s-7.8-0.6-11-1.6c-3-0.9-4.4-1.9-4.8-2.3V22.7l15.1,5.9c0.2,0.1,0.4,0.1,0.7,0.1s0.4,0,0.7-0.1l15.1-5.9
	L49.3,34.8L49.3,34.8z"/>
</svg>
